X:61
T: Graf und Nonne (Die Nonne)
N: Q01557
O: Osteuropa, Ungarn
N: Schlusspause gestrichen.
R: Ballade, Standesunterschied, vergebliche Werbung, Liebes - Lied
M: 2/4
L: 1/16
K: G
D2D2 | GGG2F2E2 | E2D2D2
D2 | G2G2A2c2 | B8 |
D2D2 | GGG2F2E2 | E2D2D2
D2 | G2G2A2c2 | B8z2
B2 | B3BB2B2 | B2d2c2
B2 | A3GF2E2 | D2c2B2
A2 | G2G2A2F2 | G4z2
B2 | B3BB2B2 | B2d2c2
B2 | A3GF2E2 | D2c2B2
A2 | G2G2A2F2 | G4

@@@ Tune index: 1771
